X:1
T:Mary Magdalene (Dykes), 65.65 D
T:John Bacchus Dykes, 1862
T:Mary Magdalene (Dykes), 65.65 D
T:Public Domain
C:John Bacchus Dykes, 1862
Z:Public Domain
%%score ( 1 2 ) ( 3 4 )
L:1/8
M:4/4
K:F
V:1 treble 
V:2 treble 
V:3 bass 
V:4 bass 
V:1
 [CF]2 F2 [FG]2 [FA]2 | [FB]4 [FA]4 | [FA]2 [EA]2 [DG]2 [DF]2 | [CE]8 | [CF]2 F2 [FG]2 [FA]2 | %5
 (F2 D2) [FA]4 | [FA]2 [FA]2 [E^G]2 [EG]2 | [EA]8 | [Ac]2 [Gc]2 [^Fc]2 [FA]2 | (G2 F2) [EG]4 | %10
 [FA]2 [EA]2 [DG]2 [DF]2 | [CE]8 | [CF]2 [CF]2 [CG]2 [FA]2 | [FB]4 [FA]4 | [FA]2 F2 [FG]2 z F | %15
 F8 |] %16
V:2
 x2 F2 x4 | x8 | x8 | x8 | x2 F2 x4 | B4 x4 | x8 | x8 | x8 | B4 x4 | x8 | x8 | x8 | x8 | x6 E2 | %15
 F8 |] %16
V:3
 [F,A,]2 [F,A,]2 [F,B,]2 [F,C]2 | [F,D]4 [F,C]4 | [A,,C]2 [A,,C]2 [B,,B,]2 [B,,A,]2 | [C,G,]8 | %4
 [F,A,]2 [F,A,]2 [F,B,]2 [F,C]2 | (D2 B,2) [F,C]4 | [D,=B,]2 [D,B,]2 [E,B,]2 [E,D]2 | [A,C]8 | %8
 [A,E]2 [A,E]2 [D,D]2 [D,D]2 | [G,D]4 (C2 B,2) | [F,A,]2 [F,C]2 [B,,B,]2 [B,,A,]2 | [C,G,]8 | %12
 [F,A,]2 [F,A,]2 [E,B,]2 [_E,C]2 | (D,2 B,,2) [F,C]4 | [C,C]2 [C,A,]2 [C,G,]2 [C,B,]2 | [F,A,]8 |] %16
V:4
 x8 | x8 | x8 | x8 | x8 | F,4 x4 | x8 | x8 | x8 | x4 C,4 | x8 | x8 | x8 | D4 x4 | x8 | x8 |] %16

